src/topics/icons/youtube.svg

<svg height="180" preserveAspectRatio="xMidYMid" viewBox="0 0 256 180" width="256" xmlns="http://www.w3.org/2000/svg" xmlns:xlink="http://www.w3.org/1999/xlink"><linearGradient id="a" x1="49.980476%" x2="49.980476%" y1=".000001%" y2="100.030167%"><stop offset="0" stop-color="#e52d27"/><stop offset="1" stop-color="#bf171d"/></linearGradient><path d="m101.6 123.2 69.2-35.8-69.2-36.1z" fill="#fff"/><path d="m101.6 51.3 60.7 40.5 8.5-4.4z" fill="#420000" opacity=".12"/><path d="m253.301054 38.8s-2.499024-17.6-10.196017-25.4c-9.696212-10.2-20.591956-10.2-25.689965-10.8-35.68606-2.6-89.365092-2.6-89.365092-2.6h-.09996s-53.6790321 0-89.5650141 2.6c-4.9980477.6-15.8937915.6-25.6899649 10.8-7.59703241 7.8-10.09605623 25.4-10.09605623 25.4s-2.59898477 20.8-2.59898477 41.5v19.4c0 20.7 2.59898477 41.4 2.59898477 41.4s2.49902382 17.6 10.19601723 25.4c9.6962124 10.2 22.4912143 9.9 28.1889886 10.9 20.4919953 2 86.9660294 2.6 86.9660294 2.6s53.778992-.1 89.565013-2.7c4.998048-.6 15.893792-.6 25.689965-10.8 7.696993-7.8 10.196017-25.4 10.196017-25.4s2.598985-20.7 2.598985-41.4v-19.4c-.099961-20.7-2.698946-41.5-2.698946-41.5zm-151.740726 84.4v-71.9l69.172979 36.1z" fill="url(#a)"/></svg>

<?xml version="1.0" encoding="UTF-8" standalone="no"?>
<svg width="256px" height="180px" viewBox="0 0 256 180" version="1.1" xmlns="http://www.w3.org/2000/svg" xmlns:xlink="http://www.w3.org/1999/xlink" preserveAspectRatio="xMidYMid">
    <defs>
        <linearGradient x1="49.9804764%" y1="8.68053889e-07%" x2="49.9804764%" y2="100.030167%" id="linearGradient-1">
            <stop stop-color="#E52D27" offset="0%"></stop>
            <stop stop-color="#BF171D" offset="100%"></stop>
        </linearGradient>
    </defs>
    <g>
        <g>
            <path d="M101.6,123.2 L170.8,87.4 L101.6,51.3 L101.6,123.2 L101.6,123.2 Z" fill="#FFFFFF"></path>
            <path d="M101.6,51.3 L162.3,91.8 L170.8,87.4 L101.6,51.3 L101.6,51.3 Z" opacity="0.12" fill="#420000"></path>
            <path d="M253.301054,38.8 C253.301054,38.8 250.80203,21.2 243.105037,13.4 C233.408825,3.2 222.513081,3.2 217.415072,2.6 C181.729012,0 128.04998,0 128.04998,0 L127.95002,0 C127.95002,0 74.2709879,0 38.3850059,2.6 C33.3869582,3.2 22.4912144,3.2 12.695041,13.4 C5.09800859,21.2 2.59898477,38.8 2.59898477,38.8 C2.59898477,38.8 0,59.6 0,80.3 L0,99.7 C0,120.4 2.59898477,141.1 2.59898477,141.1 C2.59898477,141.1 5.09800859,158.7 12.795002,166.5 C22.4912144,176.7 35.2862163,176.4 40.9839906,177.4 C61.4759859,179.4 127.95002,180 127.95002,180 C127.95002,180 181.729012,179.9 217.515033,177.3 C222.513081,176.7 233.408825,176.7 243.204998,166.5 C250.901991,158.7 253.401015,141.1 253.401015,141.1 C253.401015,141.1 256,120.4 256,99.7 L256,80.3 C255.900039,59.6 253.301054,38.8 253.301054,38.8 L253.301054,38.8 Z M101.560328,123.2 L101.560328,51.3 L170.733307,87.4 L101.560328,123.2 L101.560328,123.2 Z" fill="url(#linearGradient-1)"></path>
        </g>
    </g>
</svg>
